packages/tokens/icons/support/size24Px.svg

<svg viewBox="0 0 24 24" fill="none" xmlns="http://www.w3.org/2000/svg" width="1em" height="1em"><rect x="2.5" y="4.5" width="19" height="15" rx="1.5" stroke="currentColor"/><line x1="2.10547" y1="7.5" x2="21.2634" y2="7.5" stroke="currentColor"/><circle cx="4.5" cy="5.97363" r="0.5" fill="currentColor"/><circle cx="6.5" cy="5.97363" r="0.5" fill="currentColor"/><circle cx="8.5" cy="5.97363" r="0.5" fill="currentColor"/><path d="M15.8039 12.6774H15.4029C15.3206 12.3175 15.1767 11.9884 14.9916 11.6799L15.2692 11.4023C15.3515 11.3201 15.3515 11.1967 15.2692 11.1144L14.3953 10.2404C14.313 10.1581 14.1896 10.1581 14.1074 10.2404L13.8298 10.518C13.5213 10.3329 13.1923 10.1889 12.8324 10.1067V9.70566C12.8324 9.59254 12.7399 9.5 12.6268 9.5H11.393C11.2799 9.5 11.1873 9.59254 11.1873 9.70566V10.1067C10.8275 10.1889 10.4985 10.3329 10.19 10.518L9.90213 10.2404C9.81987 10.1581 9.69649 10.1581 9.61424 10.2404L8.74029 11.1144C8.65803 11.1967 8.65803 11.3201 8.74029 11.4023L9.0179 11.6799C8.83282 11.9884 8.68888 12.3175 8.60662 12.6774H8.20564C8.09254 12.6774 8 12.7699 8 12.883V14.117C8 14.2301 8.09254 14.3226 8.20564 14.3226H8.60662C8.68888 14.6825 8.83282 15.0116 9.0179 15.3201L8.74029 15.5977C8.65803 15.6799 8.65803 15.8033 8.74029 15.8856L9.61424 16.7596C9.69649 16.8419 9.81987 16.8419 9.90213 16.7596L10.1797 16.482C10.4882 16.6671 10.8172 16.8111 11.1771 16.8933V17.2943C11.1771 17.4075 11.2696 17.5 11.3827 17.5H12.6165C12.7296 17.5 12.8222 17.4075 12.8222 17.2943V16.8933C13.182 16.8111 13.511 16.6671 13.8195 16.482L14.0971 16.7596C14.1793 16.8419 14.3027 16.8419 14.385 16.7596L15.2589 15.8856C15.3412 15.8033 15.3412 15.6799 15.2589 15.5977L14.9813 15.3201C15.1664 15.0116 15.3103 14.6825 15.3926 14.3226H15.7936C15.9067 14.3226 15.9992 14.2301 15.9992 14.117V12.883C16.0095 12.7699 15.917 12.6774 15.8039 12.6774Z" stroke="currentColor" stroke-miterlimit="10"/><path d="M13.2777 13.5001C13.2777 14.206 12.7056 14.7781 11.9999 14.7781C11.2943 14.7781 10.7222 14.206 10.7222 13.5001C10.7222 12.7943 11.2943 12.2222 11.9999 12.2222C12.7056 12.2222 13.2777 12.7943 13.2777 13.5001Z" stroke="currentColor"/></svg>

<svg xmlns="http://www.w3.org/2000/svg" fill="none" viewBox="0 0 24 24" width="1em" height="1em"><rect width="19" height="15" x="2.5" y="4.5" stroke="currentColor" rx="1.5"/><path stroke="currentColor" d="M2.105 7.5h19.158"/><circle cx="4.5" cy="5.974" r=".5" fill="currentColor"/><circle cx="6.5" cy="5.974" r=".5" fill="currentColor"/><circle cx="8.5" cy="5.974" r=".5" fill="currentColor"/><path stroke="currentColor" stroke-miterlimit="10" d="M15.804 12.677h-.401a3.407 3.407 0 0 0-.411-.997l.277-.278a.199.199 0 0 0 0-.288l-.874-.874a.199.199 0 0 0-.288 0l-.277.278a3.403 3.403 0 0 0-.998-.411v-.401a.206.206 0 0 0-.205-.206h-1.234a.206.206 0 0 0-.206.206v.4c-.36.083-.688.227-.997.412l-.288-.278a.199.199 0 0 0-.288 0l-.874.874a.199.199 0 0 0 0 .288l.278.278a3.406 3.406 0 0 0-.411.997h-.401a.206.206 0 0 0-.206.206v1.234c0 .113.093.206.206.206h.4c.083.36.227.689.412.997l-.278.278a.199.199 0 0 0 0 .288l.874.874a.199.199 0 0 0 .288 0l.278-.278c.308.185.637.33.997.411v.401c0 .113.093.206.206.206h1.234a.206.206 0 0 0 .205-.206v-.4c.36-.083.689-.227.998-.412l.277.278a.199.199 0 0 0 .288 0l.874-.874a.199.199 0 0 0 0-.288l-.278-.278c.185-.308.33-.638.412-.997h.4a.206.206 0 0 0 .206-.206v-1.234a.192.192 0 0 0-.195-.206Z"/><path stroke="currentColor" d="M13.278 13.5a1.278 1.278 0 1 1-2.556 0 1.278 1.278 0 0 1 2.556 0Z"/></svg>
